Hatter-kde-dark/actions/24/view-file-columns.svg

<?xml version="1.0" encoding="UTF-8"?>
<svg viewBox="0 0 24 24" xmlns="http://www.w3.org/2000/svg">
 <defs id="defs3051">
  <style id="current-color-scheme" type="text/css">.ColorScheme-Text {
        color:#dedede;
      }</style>
 </defs>
 <path class="ColorScheme-Text" d="m4 4v16h5v-16h-5zm6 0v16h5v-16h-5zm6 0v16h5v-16h-5zm-5 1h3v14h-3v-14z" fill="currentColor"/>
</svg>

<svg xmlns="http://www.w3.org/2000/svg" viewBox="0 0 24 24">
  <defs id="defs3051">
    <style type="text/css" id="current-color-scheme">
      .ColorScheme-Text {
        color:#dedede;
      }
      </style>
  </defs>
 <path style="fill:currentColor;fill-opacity:1;stroke:none" 
     d="M 4 4 L 4 20 L 9 20 L 9 4 L 4 4 z M 10 4 L 10 20 L 15 20 L 15 4 L 10 4 z M 16 4 L 16 20 L 21 20 L 21 4 L 16 4 z M 11 5 L 14 5 L 14 19 L 11 19 L 11 5 z "
     class="ColorScheme-Text"
     />
</svg>
